X: 2433
M: C
L: 1/8
K: D
(A,B,C) !segno!|\
zDCE D2 (3(ABc) | d<B zG AFGE |\
zDD2 D4 | d<B zA AFGE ||\
zDd2 c4 | (B>c)(B>A) FA zA |\
z2d2 z2c2 |
(B>c)(B>A) FDED |\
zDd2 c4 | (B>c)(B>A) FA z(d |\
f)(dg)(e f)(de)(c | d)(cd)(B A)(F"_D.C."G)E !segno!:|


